X: 1
T: The New High Level Reel
C: Robert Whinham
N: often misattributed to Andrew Rankine, who recorded a version
R: reel
Z: 2002 John Chambers <jc:trillian.mit.edu>
M: C|
L: 1/8
K: G
D2 |: "G"G2DG B2GB | "G"d2ed cBAG |\
[1,3 "D7"F2DF A2FA | "D7"d^cde d=cBA :|\
[2,4 "D7"FDFA dcBA | "G"G2B2 G2 :|
|: Bc |\
     "G"d2Bd gdBd | "C"e2ce gece |\
[1,3 "G"d2Bd gdBd | "Am"c2fe "D7"dc :|\
[2,4 "G"dgfe "D7"dcBA | "G"G2B2 G2 :|

%%sep 1 1 500

